X:49
T:Mountain Heather
B:Terry "Cuz" Teahan "Sliabh Luachra on Parade" 1980
Z:Patrick Cavanagh
M:12/8
L:1/8
R:Slide
K:G
F | D2G G2A B2d cAG | F2D DED F2G AFD | 
D2G G2A BAG ABc | ded cAF G3 G2 :| 
A | B2G c2A B2d cAG | F2D D2E F2D D2A | 
B2G c2A BAG ABc | ded cAF G3 G2 :| 
d | g2d dBd g2a bag | f2d dAd f2g agf | 
g2d dBd g2a bag | fed cAF G3 G2 :|| 

